!!!OTL: VON ALLEN LAENDERN IN DER WELT
!!!ARE: Europa, Mitteleuropa, Deutschland
!!!SCT: B0031
!!!YEM: Copyright 1995, estate of Helmut Schaffrath.
**kern
*ICvox
*Ivox
*M4/4
*k[f#c#]
*D:
{4D
=1
4F#
4D
4A
8B
8c#
=2
4d
4e
4f#}
{8.d
16c#
=3
4B
4B
4A
4B
=4
4G
8.A
16A
4F#
8r}
{8F#
=5
4E
4A
8.A
16G#
8.A
16B
=6
2c#
2B
=7
2A
4r}
{4A
=8
4A
4E
4E
4F#
=9
4G
8.A
16F#
4G
8r}
{8G
=10
4c#
4A
4d
4A
=11
4e
8.c#
16e
4.f#}
{8e
=12
8.d
16c#
8.B
16e
4d
4c#
=13
2d
4r}
==
!!!AGN: politisch, national, Vaterlands - Lied
!!!ONB: ESAC (Essen Associative Code) Database: BOEHME
!!!AMT: simple quadruple
!!!AIN: vox
!!!EED: Helmut Schaffrath
!!!EEV: 1.0
*-
